krita/pics/Breeze-light/light_drive-harddisk.svg

<!--Created with Inkscape (http://www.inkscape.org/)--><svg xmlns:dc="http://purl.org/dc/elements/1.1/" xmlns:cc="http://creativecommons.org/ns#" xmlns:rdf="http://www.w3.org/1999/02/22-rdf-syntax-ns#" xmlns="http://www.w3.org/2000/svg" xmlns:sodipodi="http://sodipodi.sourceforge.net/DTD/sodipodi-0.dtd" xmlns:inkscape="http://www.inkscape.org/namespaces/inkscape" width="16" height="16" id="svg2" version="1.1" inkscape:version="0.91+devel r" viewBox="0 0 16 16" sodipodi:docname="drive-harddisk.svg"><sodipodi:namedview id="base" pagecolor="#ffffff" bordercolor="#666666" borderopacity="1.0" inkscape:pageopacity="0.0" inkscape:pageshadow="2" inkscape:zoom="44.8" inkscape:cx="5.4341086" inkscape:cy="8.369756" inkscape:document-units="px" inkscape:current-layer="layer1" showgrid="true" inkscape:showpageshadow="false" borderlayer="true" units="px" inkscape:window-width="1366" inkscape:window-height="670" inkscape:window-x="-4" inkscape:window-y="29" inkscape:window-maximized="1"><inkscape:grid type="xygrid" id="grid4062"/><sodipodi:guide position="2,14.000017" orientation="12,0" id="guide4066"/><sodipodi:guide position="2,2.0000174" orientation="0,12" id="guide4068"/><sodipodi:guide position="14,2.0000174" orientation="-12,0" id="guide4070"/><sodipodi:guide position="14,14.000017" orientation="0,-12" id="guide4072"/></sodipodi:namedview><metadata id="metadata7"><rdf:RDF><cc:Work><dc:format>image/svg+xml</dc:format><dc:type rdf:resource="http://purl.org/dc/dcmitype/StillImage"/><dc:title/></cc:Work></rdf:RDF></metadata><g inkscape:label="Capa 1" inkscape:groupmode="layer" id="layer1" transform="translate(0 -1036.362)"><path style="opacity:1;fill:#d2d2d2;fill-opacity:1;stroke:none" d="M2 2v12h12V2H2zm1 1h10v8H8v1H6v-1H3V3zm1 1v6h8V4H4zm1 1h1v2h4V5h1v4H5V5zm-2 7h2v1H3v-1zm6 0h3v1H9v-1z" transform="translate(0 1036.362)" id="rect4142"/></g></svg>

<?xml version="1.0" encoding="UTF-8" standalone="no"?>
<!-- Created with Inkscape (http://www.inkscape.org/) -->

<svg
   xmlns:dc="http://purl.org/dc/elements/1.1/"
   xmlns:cc="http://creativecommons.org/ns#"
   xmlns:rdf="http://www.w3.org/1999/02/22-rdf-syntax-ns#"
   xmlns:svg="http://www.w3.org/2000/svg"
   xmlns="http://www.w3.org/2000/svg"
   xmlns:sodipodi="http://sodipodi.sourceforge.net/DTD/sodipodi-0.dtd"
   xmlns:inkscape="http://www.inkscape.org/namespaces/inkscape"
   width="16"
   height="16"
   id="svg2"
   version="1.1"
   inkscape:version="0.91+devel r"
   viewBox="0 0 16 16"
   sodipodi:docname="drive-harddisk.svg">
  <defs
     id="defs4" />
  <sodipodi:namedview
     id="base"
     pagecolor="#ffffff"
     bordercolor="#666666"
     borderopacity="1.0"
     inkscape:pageopacity="0.0"
     inkscape:pageshadow="2"
     inkscape:zoom="44.8"
     inkscape:cx="5.4341086"
     inkscape:cy="8.369756"
     inkscape:document-units="px"
     inkscape:current-layer="layer1"
     showgrid="true"
     inkscape:showpageshadow="false"
     borderlayer="true"
     units="px"
     inkscape:window-width="1366"
     inkscape:window-height="670"
     inkscape:window-x="-4"
     inkscape:window-y="29"
     inkscape:window-maximized="1">
    <inkscape:grid
       type="xygrid"
       id="grid4062" />
    <sodipodi:guide
       position="2,14.000017"
       orientation="12,0"
       id="guide4066" />
    <sodipodi:guide
       position="2,2.0000174"
       orientation="0,12"
       id="guide4068" />
    <sodipodi:guide
       position="14,2.0000174"
       orientation="-12,0"
       id="guide4070" />
    <sodipodi:guide
       position="14,14.000017"
       orientation="0,-12"
       id="guide4072" />
  </sodipodi:namedview>
  <metadata
     id="metadata7">
    <rdf:RDF>
      <cc:Work
         rdf:about="">
        <dc:format>image/svg+xml</dc:format>
        <dc:type
           rdf:resource="http://purl.org/dc/dcmitype/StillImage" />
        <dc:title />
      </cc:Work>
    </rdf:RDF>
  </metadata>
  <g
     inkscape:label="Capa 1"
     inkscape:groupmode="layer"
     id="layer1"
     transform="translate(0,-1036.3622)">
    <path
       style="opacity:1;fill:#d2d2d2;fill-opacity:1;stroke:none"
       d="M 2 2 L 2 14 L 3 14 L 13 14 L 14 14 L 14 2 L 2 2 z M 3 3 L 13 3 L 13 10 L 13 11 L 8 11 L 8 12 L 6 12 L 6 11 L 3 11 L 3 10 L 3 3 z M 4 4 L 4 10 L 12 10 L 12 4 L 4 4 z M 5 5 L 6 5 L 6 7 L 10 7 L 10 5 L 11 5 L 11 9 L 5 9 L 5 5 z M 3 12 L 5 12 L 5 13 L 3 13 L 3 12 z M 9 12 L 12 12 L 12 13 L 9 13 L 9 12 z "
       transform="translate(0,1036.3622)"
       id="rect4142" />
  </g>
</svg>
